X:1
T:Fully Persuaded
T:Fully Persuaded
T:William Fiske Sherwin
T:Jonathan Burtch Atchinson, 1875
T:Public Domain Courtesy of the Cyber Hymnal™
C:William Fiske Sherwin
Z:Public Domain
Z:Courtesy of the Cyber Hymnal™
%%score ( 1 2 ) ( 3 4 )
L:1/8
Q:1/4=110
M:6/8
K:G
V:1 treble 
V:2 treble 
V:3 bass 
V:4 bass 
V:1
 [Gd]3 [Gc]2 [GB] | [FA]3 G3 | [EA]3 [EG]2 [CE] | [B,D]3- [B,D]2 z | [DG]3 [DF]2 [DG] | %5
w: 1.~Ful- ly per-|suad- ed,|Lord, I be-|lieve! *|Ful- ly per-|
w: 2.~Ful- ly per-|suad- ed—|Lord, hear my|cry! *|Ful- ly per-|
w: 3.~Ful- ly per-|suad- ed,|no more op-|prest, *|Ful- ly per-|
w: 4.~Ful- ly per-|suad- ed,|Je- sus is|mine; *|Ful- ly per-|
 [FA]3 [FA]3 | [GB]3 [G^c]2 [Gc] | [Fd]3- [Fd]2 z | [Fc]3 [GB]2 [DA] | [DG]2 [CE] [B,D]3 | %10
w: suad- ed,|Thy Spir- it|give; *|I will o-|bey Thy call;|
w: suad- ed—|pass me not|by; *|Just as I|am I come,|
w: suad- ed,|now I am|blest; *|Je- sus is|now my Guide,|
w: suad- ed,|Lord I am|Thine! *|O make my|love to Thee|
 c3 [GB]2 [DA] | [DG]2 [CE] [B,D]3 | [DG]3 [DA]2 [DA] | [DB]2 [=FB] !fermata![Ec]3 | %14
w: low at Thy|feet I fall;|Now I sur-|ren- der all,|
w: I will no|long- er roam,|O make my|heart Thy home;|
w: I will in|Christ a- bide,|My soul is|sa- tis- fied|
w: like Thine own|love to me,|So rich, so|full and free,|
 [Dd]3"^riten." [CA]2 [DB] | [B,G]6 |] %16
w: Christ to re-|ceive.|
w: save, or I|die!|
w: in Him to|rest!|
w: Sav- ior di-|vine!|
V:2
 x6 | x3 G3 | x6 | x6 | x6 | x6 | x6 | x6 | x6 | x6 | (D2 F) x3 | x6 | x6 | x6 | x6 | x6 |] %16
V:3
 [G,B,]3 [G,E]2 [G,E] | [D,C]3 [E,B,]3 | [C,C]3 [C,C]2 [C,G,] | [G,,G,]3- [G,,G,]2 z | %4
 [B,,G,]3 [A,,C]2 [A,,B,] | [D,D]3 [D,D]3 | [G,D]3 [E,A,]2 [E,A,] | [D,A,]3- [D,A,]2 z | %8
 [D,A,]3 [D,D]2 [D,C] | [G,B,]2 G, G,3 | (F,2 A,) [D,D]2 [D,C] | [G,B,]2 [G,,G,] [G,,G,]3 | %12
 [B,,G,]3 [D,F,]2 [D,F,] | G,2 G, !fermata![C,G,]3 | [B,,G,]3 [D,F,]2 [D,F,] | [G,,G,]6 |] %16
V:4
 x6 | x6 | x6 | x6 | x6 | x6 | x6 | x6 | x6 | x2 G, G,3 | D,3 x3 | x6 | x6 | G,2 G, x3 | x6 | x6 |] %16

